X: 1
T: An Dro
M: 2/4
L: 1/8
R: polka
K: Ador
A2 BA|G2 E2|A2 GF|E2A2|GABA| G2E2|A2 GF|E4:|
A2B2|c3 A|BABc|B2 AG|A2B2|c3 A|A2GB|A4:|
